X: 601
T: O Nancy Don't You Remember?
T: a anna ann ne nac mea\.brai\.g tu?
%S: s:4 b:16(4+4+4+4)
R: air
B: O'Neill's 1850 #601
Z: John Walsh (walsh@math.ubc.ca)
N: Compacted via repeat instead of 2 identical A parts [JC]
Q: "Slow"
M: 3/4
L: 1/8
K: A
"^A"|: E AG | F2 EF AG | F2 E>D CE | Fd cB AG | A3 :|
"^B"[| A/B/ cd | e>f ed cA | F2 E(c/d/) ec | A2 GA F>F | E3 |]
"^C"[| c/d/ ec | dB c/d/ e3/4d/4 cA | F2 E>D CE | Fd c>B AG | A3 |]
